X:90
T:Cup of Tea, The
R:reel
Z:Sometimes played as a two-part-only reel.
Z:id:hn-reel-63
M:C|
K:Edor
BAGF GEEE|GEBE GEEE|BAGF GEEE|FDAG FDDD|
BAGF GEEE|GEBE GEEE|BAGF GAB^c|1 dBAG FDD2:|2 dBAG FDD2||
|:d2 de fdec|dcde fB~B2|d2 eg fdec|dBAG FDD2|
d2 de fdec|dfaf g2fg|afge fdec|dBAG FDD2:|
|:FAdA FAdA|FAdA FE~E2|~F3A BABc|dBAG FDD2|
FAdA FAdA|FAde fe~e2|fdec dBAF|GBAG FDD2:||
